Newaita-dark/apps/64/k9-copy.svg

<svg height="64pt" viewBox="0 0 64 64" width="64pt" xmlns="http://www.w3.org/2000/svg" xmlns:xlink="http://www.w3.org/1999/xlink"><linearGradient id="a"><stop offset="0" stop-opacity=".313726"/><stop offset=".222222" stop-opacity=".27451"/><stop offset="1" stop-opacity="0"/></linearGradient><radialGradient id="b" cx="450.908936" cy="189.579361" gradientTransform="matrix(.00000035 -.156265 -.281277 -.0000002 94.999997 127.190659)" gradientUnits="userSpaceOnUse" r="21.166656" xlink:href="#a"/><radialGradient id="c" cx="450.908936" cy="189.579361" gradientTransform="matrix(-.00000035 .156265 .281277 .0000002 -25.540237 -15.054964)" gradientUnits="userSpaceOnUse" r="21.166656" xlink:href="#a"/><radialGradient id="d" cx="450.908936" cy="189.579361" gradientTransform="matrix(-.00000035 -.156265 .281277 -.0000002 -25.540237 127.190659)" gradientUnits="userSpaceOnUse" r="21.166656" xlink:href="#a"/><radialGradient id="e" cx="450.908936" cy="189.579361" gradientTransform="matrix(.00000035 .156265 -.281277 .0000002 94.999993 -15.054965)" gradientUnits="userSpaceOnUse" r="21.166656" xlink:href="#a"/><linearGradient id="f" gradientTransform="matrix(.0267201 0 0 .125012 24.930772 26.877567)" gradientUnits="userSpaceOnUse" x1="255.323059" x2="255.323044" y1="233.5" y2="254.666656"><stop offset="0" stop-opacity=".27451"/><stop offset="1" stop-opacity="0"/></linearGradient><linearGradient id="g" gradientUnits="userSpaceOnUse" x1="960.000112" x2="960.000112" y1="175.11804050918" y2="1695.118238"><stop offset="0" stop-color="#e0e0e0"/><stop offset="1" stop-color="#bdbdbd"/></linearGradient><linearGradient id="h" gradientUnits="userSpaceOnUse" x1="960.000112" x2="960.000112" y1="1255.11822698163" y2="615.118112"><stop offset="0" stop-color="#f5f5f5"/><stop offset="1" stop-color="#e0e0e0"/></linearGradient><linearGradient id="i" gradientUnits="userSpaceOnUse" x1="41.014377" x2="41.014377" y1="56.43780942794" y2="35.26916942794"><stop offset="0" stop-color="#26c6da"/><stop offset="1" stop-color="#4dd0e1"/></linearGradient><path d="m42.335938 56.066406h5.292968v-2.644531h-5.292968zm0 0" fill="url(#b)"/><path d="m27.121094 56.066406h-5.289063v2.648438h5.289063zm0 0" fill="url(#c)"/><path d="m27.121094 56.066406h-5.289063v-2.644531h5.289063zm0 0" fill="url(#d)"/><path d="m42.335938 56.066406h5.292968v2.648438h-5.292968zm0 0" fill="url(#e)"/><path d="m27.121094 55.40625h15.214844v3.308594h-15.214844zm0 0" fill="url(#f)"/><path d="m960.026483 175.140764c-421.022809 0-760.084936 338.944029-760.084936 759.966837 0 421.022809 339.062127 759.966837 760.084936 759.966837 421.022808 0 759.966837-338.944028 759.966837-759.966837 0-421.022808-338.944029-759.966837-759.966837-759.966837zm0 599.94274c88.574223 0 160.024097 71.449874 160.024097 160.024097 0 88.692323-71.449874 160.024097-160.024097 160.024097-88.692323 0-160.024097-71.331774-160.024097-160.024097 0-88.574223 71.331774-160.024097 160.024097-160.024097zm0 0" fill="url(#g)" stroke="#333" stroke-linecap="round" stroke-width="11.338583" transform="scale(.0330761)"/><path d="m31.753906 56.066406c-13.925781 0-25.140625-11.210937-25.140625-25.136718 0-.082032.003907-.164063.003907-.246094.128906 13.8125 11.292968 24.890625 25.136718 24.890625s25.003906-11.078125 25.136719-24.890625v.246094c0 13.925781-11.210937 25.136718-25.136719 25.136718zm0 0" fill-opacity=".196078"/><g fill="#fff"><path d="m13.984375 13.160156c-1.460937 1.488282-2.757813 3.1875-3.851563 5.082032-1.09375 1.894531-1.914062 3.867187-2.472656 5.875l5.664063 1.519531c.882812-3.1875 2.5625-6.035157 4.808593-8.328125zm5.199219 5.199219c-2.0625 2.109375-3.601563 4.730469-4.410156 7.664063l12.066406 3.234374c.117187-.375.273437-.742187.476562-1.09375.207032-.351562.445313-.675781.710938-.960937zm0 0" fill-opacity=".392157"/><path d="m31.753906 5.792969c-13.925781 0-25.140625 11.210937-25.140625 25.136719 0 .082031.003907.164062.003907.246093.128906-13.8125 11.292968-24.890625 25.136718-24.890625s25.003906 11.078125 25.136719 24.890625c0-.082031 0-.164062 0-.246093 0-13.925782-11.210937-25.136719-25.136719-25.136719zm0 0" fill-opacity=".588235"/><path d="m36.957031 32.359375c-.117187.375-.273437.738281-.476562 1.09375-.207031.351563-.445313.675781-.710938.960937l8.847657 8.84375c2.0625-2.105468 3.601562-4.730468 4.410156-7.664062zm13.515625 3.621094c-.882812 3.1875-2.558594 6.039062-4.804687 8.332031l4.144531 4.144531c1.460938-1.492187 2.761719-3.1875 3.851562-5.082031 1.09375-1.894531 1.914063-3.867188 2.476563-5.875zm0 0" fill-opacity=".392157"/></g><path d="m31.753906 5.605469c-14.027344 0-25.328125 11.296875-25.328125 25.324219 0 14.027343 11.300781 25.324218 25.328125 25.324218s25.324219-11.296875 25.324219-25.324218c0-14.027344-11.296875-25.324219-25.324219-25.324219zm0 .375c13.824219 0 24.949219 11.125 24.949219 24.949219 0 13.824218-11.125 24.949218-24.949219 24.949218-13.828125 0-24.953125-11.125-24.953125-24.949218 0-13.824219 11.125-24.949219 24.953125-24.949219zm0 0" fill="#212121"/><path d="m960.026483 615.059407c-177.266546 0-320.048194 142.781648-320.048194 320.048194s142.781648 320.048194 320.048194 320.048194 319.930095-142.781648 319.930095-320.048194-142.663549-320.048194-319.930095-320.048194zm0 160.024097c88.574223 0 160.024097 71.449874 160.024097 160.024097 0 88.692323-71.449874 160.024097-160.024097 160.024097-88.692323 0-160.024097-71.331774-160.024097-160.024097 0-88.574223 71.331774-160.024097 160.024097-160.024097zm0 0" fill="url(#h)" stroke="#333" stroke-linecap="round" stroke-width="11.338583" transform="scale(.0330761)"/><path d="m41.015625 35.269531c-5.863281 0-10.585937 4.71875-10.585937 10.582031 0 5.867188 4.722656 10.585938 10.585937 10.585938s10.582031-4.71875 10.582031-10.585938c0-5.863281-4.71875-10.582031-10.582031-10.582031zm0 6.351563c2.34375 0 4.234375 1.886718 4.234375 4.230468 0 2.347657-1.890625 4.234376-4.234375 4.234376-2.347656 0-4.234375-1.886719-4.234375-4.234376 0-2.34375 1.886719-4.230468 4.234375-4.230468zm0 2.117187c-1.175781 0-2.117187.941407-2.117187 2.113281 0 1.175782.941406 2.117188 2.117187 2.117188 1.171875 0 2.117187-.941406 2.117187-2.117188 0-1.171874-.945312-2.113281-2.117187-2.113281zm0 0" fill="url(#i)"/><path d="m41.015625 35.269531c-5.863281 0-10.585937 4.71875-10.585937 10.582031 0 .089844 0 .175782.003906.261719.144531-5.734375 4.808594-10.308593 10.582031-10.308593 5.769531 0 10.433594 4.574218 10.578125 10.308593.003906-.085937.003906-.171875.003906-.261719 0-5.863281-4.71875-10.582031-10.582031-10.582031zm0 8.46875c-1.175781 0-2.117187.941407-2.117187 2.113281 0 .09375.003906.183594.015624.269532.132813-1.042969 1.019532-1.847656 2.101563-1.847656s1.96875.804687 2.097656 1.847656c.011719-.085938.019531-.175782.019531-.269532 0-1.171874-.945312-2.113281-2.117187-2.113281zm-4.207031 2.597657c-.019532.160156-.027344.320312-.027344.484374 0 .089844.003906.179688.007812.269532.003907-.074219.011719-.144532.019532-.21875.238281 2.117187 2.023437 3.753906 4.207031 3.753906 2.179687 0 3.964844-1.636719 4.207031-3.753906.007813.074218.011719.144531.015625.21875.007813-.089844.011719-.179688.011719-.269532 0-.164062-.011719-.324218-.027344-.484374-.242187 2.117187-2.027344 3.75-4.207031 3.75-2.183594 0-3.96875-1.632813-4.207031-3.75zm0 0" fill="#fff" fill-opacity=".392157"/><path d="m41.015625 41.621094c-2.347656 0-4.234375 1.886718-4.234375 4.230468 0 .140626.007812.28125.019531.417969.207031-2.148437 2.007813-3.816406 4.214844-3.816406 2.203125 0 4.003906 1.667969 4.210937 3.816406.015626-.136719.023438-.277343.023438-.417969 0-2.34375-1.890625-4.230468-4.234375-4.230468zm-10.578125 4.648437c-.003906.140625-.007812.277344-.007812.417969 0 4.109375 2.316406 7.652344 5.722656 9.410156.441406-.078125.878906-.167968 1.3125-.265625-3.984375-1.410156-6.855469-5.128906-7.027344-9.5625zm21.152344 0c-.007813.203125-.019532.402344-.039063.597657.015625-.019532.03125-.039063.046875-.0625 0-.039063 0-.078126 0-.117188 0-.140625 0-.277344-.007812-.417969zm-12.652344 0c-.027344.136719-.039062.273438-.039062.417969 0 1.171875.941406 2.117188 2.117187 2.117188 1.171875 0 2.117187-.945313 2.117187-2.117188 0-.144531-.015624-.28125-.042968-.417969-.191406.972657-1.046875 1.699219-2.074219 1.699219-1.03125 0-1.882813-.726562-2.078125-1.699219zm0 0" fill-opacity=".235294"/><path d="m328.093669 63.850187c-46.901771 0-84.679414 37.746395-84.679414 84.648167 0 46.933018 37.777643 84.679413 84.679414 84.679413s84.648166-37.746395 84.648166-84.679413c0-46.901772-37.746395-84.648167-84.648166-84.648167zm0 50.807648c18.748209 0 33.871765 15.092309 33.871765 33.840519 0 18.779456-15.123556 33.871765-33.871765 33.871765-18.779457 0-33.871766-15.092309-33.871766-33.871765 0-18.74821 15.092309-33.840519 33.871766-33.840519zm0 16.935883c-9.405352 0-16.935883 7.530531-16.935883 16.904636 0 9.405351 7.530531 16.935882 16.935883 16.935882 9.374104 0 16.935882-7.530531 16.935882-16.935882 0-9.374105-7.561778-16.904636-16.935882-16.904636zm0 0" fill="none" stroke="#212121" stroke-linecap="square" stroke-linejoin="bevel" stroke-width="3" transform="matrix(.125012 0 0 .125012 0 27.287496)"/></svg>

<?xml version="1.0" encoding="UTF-8"?>
<svg xmlns="http://www.w3.org/2000/svg" xmlns:xlink="http://www.w3.org/1999/xlink" width="64pt" height="64pt" viewBox="0 0 64 64" version="1.1">
<defs>
<radialGradient id="radial0" gradientUnits="userSpaceOnUse" cx="450.908936" cy="189.579361" fx="450.908936" fy="189.579361" r="21.166656" gradientTransform="matrix(0.000000348341,-0.156265,-0.281277,-0.000000203077,94.999997,127.190659)">
<stop offset="0" style="stop-color:rgb(0%,0%,0%);stop-opacity:0.313726;"/>
<stop offset="0.222222" style="stop-color:rgb(0%,0%,0%);stop-opacity:0.27451;"/>
<stop offset="1" style="stop-color:rgb(0%,0%,0%);stop-opacity:0;"/>
</radialGradient>
<radialGradient id="radial1" gradientUnits="userSpaceOnUse" cx="450.908936" cy="189.579361" fx="450.908936" fy="189.579361" r="21.166656" gradientTransform="matrix(-0.000000348341,0.156265,0.281277,0.000000203077,-25.540237,-15.054964)">
<stop offset="0" style="stop-color:rgb(0%,0%,0%);stop-opacity:0.313726;"/>
<stop offset="0.222222" style="stop-color:rgb(0%,0%,0%);stop-opacity:0.27451;"/>
<stop offset="1" style="stop-color:rgb(0%,0%,0%);stop-opacity:0;"/>
</radialGradient>
<radialGradient id="radial2" gradientUnits="userSpaceOnUse" cx="450.908936" cy="189.579361" fx="450.908936" fy="189.579361" r="21.166656" gradientTransform="matrix(-0.000000348341,-0.156265,0.281277,-0.000000203077,-25.540237,127.190659)">
<stop offset="0" style="stop-color:rgb(0%,0%,0%);stop-opacity:0.313726;"/>
<stop offset="0.222222" style="stop-color:rgb(0%,0%,0%);stop-opacity:0.27451;"/>
<stop offset="1" style="stop-color:rgb(0%,0%,0%);stop-opacity:0;"/>
</radialGradient>
<radialGradient id="radial3" gradientUnits="userSpaceOnUse" cx="450.908936" cy="189.579361" fx="450.908936" fy="189.579361" r="21.166656" gradientTransform="matrix(0.000000348341,0.156265,-0.281277,0.000000203077,94.999993,-15.054965)">
<stop offset="0" style="stop-color:rgb(0%,0%,0%);stop-opacity:0.313726;"/>
<stop offset="0.222222" style="stop-color:rgb(0%,0%,0%);stop-opacity:0.27451;"/>
<stop offset="1" style="stop-color:rgb(0%,0%,0%);stop-opacity:0;"/>
</radialGradient>
<linearGradient id="linear0" gradientUnits="userSpaceOnUse" x1="255.323059" y1="233.5" x2="255.323044" y2="254.666656" gradientTransform="matrix(0.0267201,0,0,0.125012,24.930772,26.877567)">
<stop offset="0" style="stop-color:rgb(0%,0%,0%);stop-opacity:0.27451;"/>
<stop offset="1" style="stop-color:rgb(0%,0%,0%);stop-opacity:0;"/>
</linearGradient>
<linearGradient id="linear1" gradientUnits="userSpaceOnUse" x1="254" y1="-168.666672" x2="254" y2="233.5" gradientTransform="matrix(3.779528,0,0,3.779528,0,812.59845)">
<stop offset="0" style="stop-color:rgb(87.843138%,87.843138%,87.843138%);stop-opacity:1;"/>
<stop offset="1" style="stop-color:rgb(74.117649%,74.117649%,74.117649%);stop-opacity:1;"/>
</linearGradient>
<linearGradient id="linear2" gradientUnits="userSpaceOnUse" x1="254" y1="117.083344" x2="254" y2="-52.25" gradientTransform="matrix(3.779528,0,0,3.779528,0,812.59845)">
<stop offset="0" style="stop-color:rgb(96.078432%,96.078432%,96.078432%);stop-opacity:1;"/>
<stop offset="1" style="stop-color:rgb(87.843138%,87.843138%,87.843138%);stop-opacity:1;"/>
</linearGradient>
<linearGradient id="linear3" gradientUnits="userSpaceOnUse" x1="1280" y1="1695.118164" x2="1280" y2="1295.118164" gradientTransform="matrix(0.0529216,0,0,0.0529216,-26.725271,-33.270556)">
<stop offset="0" style="stop-color:rgb(14.901961%,77.64706%,85.490197%);stop-opacity:1;"/>
<stop offset="1" style="stop-color:rgb(30.19608%,81.568629%,88.235295%);stop-opacity:1;"/>
</linearGradient>
</defs>
<g id="surface1">
<path style=" stroke:none;fill-rule:nonzero;fill:url(#radial0);" d="M 42.335938 56.066406 L 47.628906 56.066406 L 47.628906 53.421875 L 42.335938 53.421875 Z M 42.335938 56.066406 "/>
<path style=" stroke:none;fill-rule:nonzero;fill:url(#radial1);" d="M 27.121094 56.066406 L 21.832031 56.066406 L 21.832031 58.714844 L 27.121094 58.714844 Z M 27.121094 56.066406 "/>
<path style=" stroke:none;fill-rule:nonzero;fill:url(#radial2);" d="M 27.121094 56.066406 L 21.832031 56.066406 L 21.832031 53.421875 L 27.121094 53.421875 Z M 27.121094 56.066406 "/>
<path style=" stroke:none;fill-rule:nonzero;fill:url(#radial3);" d="M 42.335938 56.066406 L 47.628906 56.066406 L 47.628906 58.714844 L 42.335938 58.714844 Z M 42.335938 56.066406 "/>
<path style=" stroke:none;fill-rule:nonzero;fill:url(#linear0);" d="M 27.121094 55.40625 L 42.335938 55.40625 L 42.335938 58.714844 L 27.121094 58.714844 Z M 27.121094 55.40625 "/>
<path style="fill-rule:nonzero;fill:url(#linear1);stroke-width:11.338583;stroke-linecap:round;stroke-linejoin:miter;stroke:rgb(20%,20%,20%);stroke-opacity:1;stroke-miterlimit:4;" d="M 960.026483 175.140764 C 539.003674 175.140764 199.941547 514.084793 199.941547 935.107601 C 199.941547 1356.13041 539.003674 1695.074438 960.026483 1695.074438 C 1381.049291 1695.074438 1719.99332 1356.13041 1719.99332 935.107601 C 1719.99332 514.084793 1381.049291 175.140764 960.026483 175.140764 Z M 960.026483 775.083504 C 1048.600706 775.083504 1120.05058 846.533378 1120.05058 935.107601 C 1120.05058 1023.799924 1048.600706 1095.131698 960.026483 1095.131698 C 871.33416 1095.131698 800.002386 1023.799924 800.002386 935.107601 C 800.002386 846.533378 871.33416 775.083504 960.026483 775.083504 Z M 960.026483 775.083504 " transform="matrix(0.0330761,0,0,0.0330761,0,0)"/>
<path style=" stroke:none;fill-rule:nonzero;fill:rgb(0%,0%,0%);fill-opacity:0.196078;" d="M 31.753906 56.066406 C 17.828125 56.066406 6.613281 44.855469 6.613281 30.929688 C 6.613281 30.847656 6.617188 30.765625 6.617188 30.683594 C 6.746094 44.496094 17.910156 55.574219 31.753906 55.574219 C 45.597656 55.574219 56.757812 44.496094 56.890625 30.683594 C 56.890625 30.765625 56.890625 30.847656 56.890625 30.929688 C 56.890625 44.855469 45.679688 56.066406 31.753906 56.066406 Z M 31.753906 56.066406 "/>
<path style=" stroke:none;fill-rule:nonzero;fill:rgb(100%,100%,100%);fill-opacity:0.392157;" d="M 13.984375 13.160156 C 12.523438 14.648438 11.226562 16.347656 10.132812 18.242188 C 9.039062 20.136719 8.21875 22.109375 7.660156 24.117188 L 13.324219 25.636719 C 14.207031 22.449219 15.886719 19.601562 18.132812 17.308594 Z M 19.183594 18.359375 C 17.121094 20.46875 15.582031 23.089844 14.773438 26.023438 L 26.839844 29.257812 C 26.957031 28.882812 27.113281 28.515625 27.316406 28.164062 C 27.523438 27.8125 27.761719 27.488281 28.027344 27.203125 Z M 19.183594 18.359375 "/>
<path style=" stroke:none;fill-rule:nonzero;fill:rgb(100%,100%,100%);fill-opacity:0.588235;" d="M 31.753906 5.792969 C 17.828125 5.792969 6.613281 17.003906 6.613281 30.929688 C 6.613281 31.011719 6.617188 31.09375 6.617188 31.175781 C 6.746094 17.363281 17.910156 6.285156 31.753906 6.285156 C 45.597656 6.285156 56.757812 17.363281 56.890625 31.175781 C 56.890625 31.09375 56.890625 31.011719 56.890625 30.929688 C 56.890625 17.003906 45.679688 5.792969 31.753906 5.792969 Z M 31.753906 5.792969 "/>
<path style=" stroke:none;fill-rule:nonzero;fill:rgb(100%,100%,100%);fill-opacity:0.392157;" d="M 36.957031 32.359375 C 36.839844 32.734375 36.683594 33.097656 36.480469 33.453125 C 36.273438 33.804688 36.035156 34.128906 35.769531 34.414062 L 44.617188 43.257812 C 46.679688 41.152344 48.21875 38.527344 49.027344 35.59375 Z M 50.472656 35.980469 C 49.589844 39.167969 47.914062 42.019531 45.667969 44.3125 L 49.8125 48.457031 C 51.273438 46.964844 52.574219 45.269531 53.664062 43.375 C 54.757812 41.480469 55.578125 39.507812 56.140625 37.5 Z M 50.472656 35.980469 "/>
<path style=" stroke:none;fill-rule:nonzero;fill:rgb(12.941177%,12.941177%,12.941177%);fill-opacity:1;" d="M 31.753906 5.605469 C 17.726562 5.605469 6.425781 16.902344 6.425781 30.929688 C 6.425781 44.957031 17.726562 56.253906 31.753906 56.253906 C 45.78125 56.253906 57.078125 44.957031 57.078125 30.929688 C 57.078125 16.902344 45.78125 5.605469 31.753906 5.605469 Z M 31.753906 5.980469 C 45.578125 5.980469 56.703125 17.105469 56.703125 30.929688 C 56.703125 44.753906 45.578125 55.878906 31.753906 55.878906 C 17.925781 55.878906 6.800781 44.753906 6.800781 30.929688 C 6.800781 17.105469 17.925781 5.980469 31.753906 5.980469 Z M 31.753906 5.980469 "/>
<path style="fill-rule:nonzero;fill:url(#linear2);stroke-width:11.338583;stroke-linecap:round;stroke-linejoin:miter;stroke:rgb(20%,20%,20%);stroke-opacity:1;stroke-miterlimit:4;" d="M 960.026483 615.059407 C 782.759937 615.059407 639.978289 757.841055 639.978289 935.107601 C 639.978289 1112.374147 782.759937 1255.155795 960.026483 1255.155795 C 1137.293029 1255.155795 1279.956578 1112.374147 1279.956578 935.107601 C 1279.956578 757.841055 1137.293029 615.059407 960.026483 615.059407 Z M 960.026483 775.083504 C 1048.600706 775.083504 1120.05058 846.533378 1120.05058 935.107601 C 1120.05058 1023.799924 1048.600706 1095.131698 960.026483 1095.131698 C 871.33416 1095.131698 800.002386 1023.799924 800.002386 935.107601 C 800.002386 846.533378 871.33416 775.083504 960.026483 775.083504 Z M 960.026483 775.083504 " transform="matrix(0.0330761,0,0,0.0330761,0,0)"/>
<path style=" stroke:none;fill-rule:nonzero;fill:url(#linear3);" d="M 41.015625 35.269531 C 35.152344 35.269531 30.429688 39.988281 30.429688 45.851562 C 30.429688 51.71875 35.152344 56.4375 41.015625 56.4375 C 46.878906 56.4375 51.597656 51.71875 51.597656 45.851562 C 51.597656 39.988281 46.878906 35.269531 41.015625 35.269531 Z M 41.015625 41.621094 C 43.359375 41.621094 45.25 43.507812 45.25 45.851562 C 45.25 48.199219 43.359375 50.085938 41.015625 50.085938 C 38.667969 50.085938 36.78125 48.199219 36.78125 45.851562 C 36.78125 43.507812 38.667969 41.621094 41.015625 41.621094 Z M 41.015625 43.738281 C 39.839844 43.738281 38.898438 44.679688 38.898438 45.851562 C 38.898438 47.027344 39.839844 47.96875 41.015625 47.96875 C 42.1875 47.96875 43.132812 47.027344 43.132812 45.851562 C 43.132812 44.679688 42.1875 43.738281 41.015625 43.738281 Z M 41.015625 43.738281 "/>
<path style=" stroke:none;fill-rule:nonzero;fill:rgb(100%,100%,100%);fill-opacity:0.392157;" d="M 41.015625 35.269531 C 35.152344 35.269531 30.429688 39.988281 30.429688 45.851562 C 30.429688 45.941406 30.429688 46.027344 30.433594 46.113281 C 30.578125 40.378906 35.242188 35.804688 41.015625 35.804688 C 46.785156 35.804688 51.449219 40.378906 51.59375 46.113281 C 51.597656 46.027344 51.597656 45.941406 51.597656 45.851562 C 51.597656 39.988281 46.878906 35.269531 41.015625 35.269531 Z M 41.015625 43.738281 C 39.839844 43.738281 38.898438 44.679688 38.898438 45.851562 C 38.898438 45.945312 38.902344 46.035156 38.914062 46.121094 C 39.046875 45.078125 39.933594 44.273438 41.015625 44.273438 C 42.097656 44.273438 42.984375 45.078125 43.113281 46.121094 C 43.125 46.035156 43.132812 45.945312 43.132812 45.851562 C 43.132812 44.679688 42.1875 43.738281 41.015625 43.738281 Z M 36.808594 46.335938 C 36.789062 46.496094 36.78125 46.65625 36.78125 46.820312 C 36.78125 46.910156 36.785156 47 36.789062 47.089844 C 36.792969 47.015625 36.800781 46.945312 36.808594 46.871094 C 37.046875 48.988281 38.832031 50.625 41.015625 50.625 C 43.195312 50.625 44.980469 48.988281 45.222656 46.871094 C 45.230469 46.945312 45.234375 47.015625 45.238281 47.089844 C 45.246094 47 45.25 46.910156 45.25 46.820312 C 45.25 46.65625 45.238281 46.496094 45.222656 46.335938 C 44.980469 48.453125 43.195312 50.085938 41.015625 50.085938 C 38.832031 50.085938 37.046875 48.453125 36.808594 46.335938 Z M 36.808594 46.335938 "/>
<path style=" stroke:none;fill-rule:nonzero;fill:rgb(0%,0%,0%);fill-opacity:0.235294;" d="M 41.015625 41.621094 C 38.667969 41.621094 36.78125 43.507812 36.78125 45.851562 C 36.78125 45.992188 36.789062 46.132812 36.800781 46.269531 C 37.007812 44.121094 38.808594 42.453125 41.015625 42.453125 C 43.21875 42.453125 45.019531 44.121094 45.226562 46.269531 C 45.242188 46.132812 45.25 45.992188 45.25 45.851562 C 45.25 43.507812 43.359375 41.621094 41.015625 41.621094 Z M 30.4375 46.269531 C 30.433594 46.410156 30.429688 46.546875 30.429688 46.6875 C 30.429688 50.796875 32.746094 54.339844 36.152344 56.097656 C 36.59375 56.019531 37.03125 55.929688 37.464844 55.832031 C 33.480469 54.421875 30.609375 50.703125 30.4375 46.269531 Z M 51.589844 46.269531 C 51.582031 46.472656 51.570312 46.671875 51.550781 46.867188 C 51.566406 46.847656 51.582031 46.828125 51.597656 46.804688 C 51.597656 46.765625 51.597656 46.726562 51.597656 46.6875 C 51.597656 46.546875 51.597656 46.410156 51.589844 46.269531 Z M 38.9375 46.269531 C 38.910156 46.40625 38.898438 46.542969 38.898438 46.6875 C 38.898438 47.859375 39.839844 48.804688 41.015625 48.804688 C 42.1875 48.804688 43.132812 47.859375 43.132812 46.6875 C 43.132812 46.542969 43.117188 46.40625 43.089844 46.269531 C 42.898438 47.242188 42.042969 47.96875 41.015625 47.96875 C 39.984375 47.96875 39.132812 47.242188 38.9375 46.269531 Z M 38.9375 46.269531 "/>
<path style="fill:none;stroke-width:3;stroke-linecap:square;stroke-linejoin:bevel;stroke:rgb(12.941177%,12.941177%,12.941177%);stroke-opacity:1;stroke-miterlimit:4;" d="M 328.093669 63.850187 C 281.191898 63.850187 243.414255 101.596582 243.414255 148.498354 C 243.414255 195.431372 281.191898 233.177767 328.093669 233.177767 C 374.99544 233.177767 412.741835 195.431372 412.741835 148.498354 C 412.741835 101.596582 374.99544 63.850187 328.093669 63.850187 Z M 328.093669 114.657835 C 346.841878 114.657835 361.965434 129.750144 361.965434 148.498354 C 361.965434 167.27781 346.841878 182.370119 328.093669 182.370119 C 309.314212 182.370119 294.221903 167.27781 294.221903 148.498354 C 294.221903 129.750144 309.314212 114.657835 328.093669 114.657835 Z M 328.093669 131.593718 C 318.688317 131.593718 311.157786 139.124249 311.157786 148.498354 C 311.157786 157.903705 318.688317 165.434236 328.093669 165.434236 C 337.467773 165.434236 345.029551 157.903705 345.029551 148.498354 C 345.029551 139.124249 337.467773 131.593718 328.093669 131.593718 Z M 328.093669 131.593718 " transform="matrix(0.125012,0,0,0.125012,0,27.287496)"/>
</g>
</svg>
